X: 2
T: Mountains Of Mourne, The
Z: gian marco
S: https://thesession.org/tunes/1858#setting15290
R: reel
M: 4/4
L: 1/8
K: Gmaj
| d2 B2 (dc)(BA) | G3 A E2 (GE) | D2 (EG) G2 (AB) | c2 z2 z2 Bc |d2 B2 (dc)(BA) | G2 A2 E2 (GE) | D2 (EG) G3 A | G2 z2 z2 ||| B3 A G2 AB | c2 d2 d2 ge | d2 B2 G2 (AB) | c2 z2 z2 Bc |d2 BB (dc)(BA) | G2 A2 E2 GE | D2 EG G3 A | G2 z2 z2 GA | B2 A2 G2 AB |c2 d2 Hd2| ge | d3 B AB | Hc2 z2 z2 Bc | d2 B2 (dc)(BA) | G2 A2 E2 GE | D3 E G2 G2 | G2 z2 z2 ||
